X:1
T:Title
%%score { ( 1 2 ) | ( 3 4 ) }
L:1/8
M:4/4
K:F
V:1 treble nm="Grand Piano"
V:2 treble 
V:3 bass 
V:4 bass 
V:1
 z4 z2[Q:1/4=100] z z/ G/ | A2 A>A A2 G>F | c6 B>A | [EG]2 [EG]>[EG] [EG]2 [DF][EG] | A6 z z/ G/ | %5
 A2 A>A A2 G>F | c6 B>A | G2 c>c =B2 c>d |[M:3/4] [Ec]6 |[M:1/4] [Ec]>[EB] |[M:4/4] A2 A>G F2 f>e | %11
 d2 d>c B2 [CDA][B,DG] | C-[CE][A,F][B,EG] [CFA]2 [CEG]>[CEG] | [CFc]6 [CEc]>[CEB] | %14
[M:3/4] [CFA]2 [EA]>[EG] F2 |[M:1/4] f>e |[M:4/4] [DGd]2 [DFd]>[D^Fc] [DGB]2 [CDA][B,DG] | %17
 C-[CE]FG A2 [EG]>[EG] |[M:3/4] [A,F]6 |] %19
V:2
 z4 z2 F2 | x8 | x8 | x8 | z4 z2 F2 | x8 | x8 | x8 |[M:3/4] x6 |[M:1/4] x2 |[M:4/4] x8 | x8 | %12
 .[A,F]2 z2 z4 | x8 |[M:3/4] x6 |[M:1/4] x2 |[M:4/4] x8 | .[A,F]2 z2 z4 |[M:3/4] x6 |] %19
V:3
 z4 z2 A,>B, | [F,CF]2 [F,CF]>[F,CF] [F,CF]2 [F,B,E]>[F,A,] | [F,A,F]6 [F,DF]>[F,CF] | %3
 [C,C]2 [C,C]>[C,C] [C,C]2 [C,C][C,C] | [F,CF]6 A,>B, | %5
 [F,CF]2 [F,CF]>[F,CF] [F,CF]2 [F,B,E]>[F,A,] | [F,A,F]6 [F,DF]>[F,CF] | %7
 [G,CE]2 [G,CE]>[G,CE] [G,DF]2 [G,CF]>[G,=B,F] |[M:3/4][K:bass] [C,C]6 |[M:1/4] [C,C]>[C,C] | %10
[M:4/4] [F,CF]2 [F,CF]>[F,B,E] [F,A,]2[K:treble] [A,CF]>[A,CF] | %11
 [B,DF]2 [B,DF]>[A,D^F] [G,DG]2[K:bass] B,,B,, | z G,C,C, C,2 B,,>B,, | A,,6 [G,,C,]>[G,,C,] | %14
[M:3/4] [F,,F,]2 [C,C]>[C,B,] [D,A,]2 |[M:1/4] [A,,A,CF]>[A,,A,CF] | %16
[M:4/4] [B,,B,]2 [B,,B,]>[A,,A,] [G,,G,]2 A,,B,, | z G,[C,A,C][C,B,C] [C,C]2 [C,B,]>[C,B,] | %18
[M:3/4] [F,,F,]6 |] %19
V:4
 z4 z2 F,2 | x8 | x8 | x8 | z4 z2 F,2 | x8 | x8 | x8 |[M:3/4][K:bass] x6 |[M:1/4] x2 | %10
[M:4/4] x6[K:treble] x2 | x6[K:bass] x2 | C,2 z2 z4 | x8 |[M:3/4] x6 |[M:1/4] x2 |[M:4/4] x8 | %17
 C,2 z2 z4 |[M:3/4] x6 |] %19

